svg/u1f441.svg

<svg viewBox="0 0 128 128" xmlns="http://www.w3.org/2000/svg">
  <g>
    <g>
      <path d="M64.32,103.32c-34.03,0-53.56-33.13-56.94-39.38c3.07-6.27,20.91-39.26,56.94-39.26 c36.03,0,53.87,32.98,56.94,39.26C117.88,70.19,98.34,103.32,64.32,103.32z" fill="#FAFAFA"/>
      <path d="M64.32,27.12c15.81,0,29.84,6.42,41.7,19.09c6.63,7.08,10.73,14.26,12.49,17.67 c-4.51,7.99-23.05,36.99-54.19,36.99c-14.88,0-28.63-6.45-40.89-19.17c-6.89-7.15-11.37-14.41-13.3-17.82 c1.75-3.41,5.86-10.6,12.49-17.67C34.48,33.54,48.51,27.12,64.32,27.12 M64.32,22.24C22.56,22.24,4.66,64,4.66,64 s20.25,41.76,59.66,41.76S123.97,64,123.97,64S106.07,22.24,64.32,22.24L64.32,22.24z" fill="#B0BEC5"/>
    </g>
    <path d="M64.32,37c26.97,0,45.47,16.51,53.66,27.71c0.96,1.31,1.99-4.99,1.12-6.36 c-7.84-12.26-25.41-32.91-54.77-32.91S17.38,46.1,9.54,58.36c-0.88,1.37,0.3,6.83,1.41,5.64C19.49,54.83,37.34,37,64.32,37z" fill="#B0BEC5"/>
    <g>
      <circle cx="64.32" cy="60.79" fill="#9C7A63" r="33.15"/>
      <path d="M64.32,37c10.87,0,20.36,2.68,28.36,6.62c-5.81-9.58-16.34-15.97-28.36-15.97 c-12.28,0-23,6.69-28.72,16.61C43.61,40.04,53.18,37,64.32,37z" fill="#806451"/>
      <circle cx="64.32" cy="60.79" fill="#212121" r="15.43"/>
      <circle cx="88.86" cy="59.37" fill="#D9BAA5" r="7.72"/>
    </g>
    <path d="M7.21,67.21c-0.52,0-1.05-0.13-1.54-0.4c-1.55-0.85-2.12-2.8-1.27-4.35 c0.85-1.55,21.28-40.21,59.92-40.21c38.64,0,58.47,37.89,59.29,39.41c0.84,1.56,0.27,3.5-1.29,4.35c-1.56,0.84-3.5,0.27-4.35-1.29 c-0.18-0.34-18.88-33.86-53.66-33.86c-34.79,0-54.11,34.34-54.3,34.69C9.43,66.61,8.34,67.21,7.21,67.21z" fill="#616161"/>
  </g>
</svg>

<svg viewBox="0 0 128 128" xmlns="http://www.w3.org/2000/svg">
  <defs/>
  <path d="M64.32,103.32 C30.29,103.32 10.76,70.19 7.38,63.94 C10.45,57.67 28.29,24.68 64.32,24.68 C100.35,24.68 118.19,57.66 121.26,63.94 C117.88,70.19 98.34,103.32 64.32,103.32 Z" fill="#FAFAFA"/>
  <path d="M64.32,27.12 C80.13,27.12 94.16,33.54 106.02,46.21 C112.65,53.29 116.75,60.47 118.51,63.88 C114,71.87 95.46,100.87 64.32,100.87 C49.44,100.87 35.69,94.42 23.43,81.7 C16.54,74.55 12.06,67.29 10.13,63.88 C11.88,60.47 15.99,53.28 22.62,46.21 C34.48,33.54 48.51,27.12 64.32,27.12 M64.32,22.24 C22.56,22.24 4.66,64 4.66,64 C4.66,64 24.91,105.76 64.32,105.76 C103.73,105.76 123.97,64 123.97,64 C123.97,64 106.07,22.24 64.32,22.24 L64.32,22.24 Z" fill="#B0BEC5"/>
  <path d="M64.32,37 C91.29,37 109.79,53.51 117.98,64.71 C118.94,66.02 119.97,59.72 119.1,58.35 C111.26,46.09 93.69,25.44 64.33,25.44 C34.97,25.44 17.38,46.1 9.54,58.36 C8.66,59.73 9.84,65.19 10.95,64 C19.49,54.83 37.34,37 64.32,37 Z" fill="#B0BEC5"/>
  <path d="M97.47,60.79 A33.15 33.15 0 1 1 31.17,60.79 A33.15 33.15 0 1 1 97.47,60.79 Z" fill="#9C7A63"/>
  <path d="M64.32,37 C75.19,37 84.68,39.68 92.68,43.62 C86.87,34.04 76.34,27.65 64.32,27.65 C52.04,27.65 41.32,34.34 35.6,44.26 C43.61,40.04 53.18,37 64.32,37 Z" fill="#806451"/>
  <path d="M79.75,60.79 A15.43 15.43 0 1 1 48.89,60.79 A15.43 15.43 0 1 1 79.75,60.79 Z" fill="#212121"/>
  <path d="M96.58,59.37 A7.72 7.72 0 1 1 81.14,59.37 A7.72 7.72 0 1 1 96.58,59.37 Z" fill="#D9BAA5"/>
  <path d="M7.21,67.21 C6.69,67.21 6.16,67.08 5.67,66.81 C4.12,65.96 3.55,64.01 4.4,62.46 C5.25,60.91 25.68,22.25 64.32,22.25 C102.96,22.25 122.79,60.14 123.61,61.66 C124.45,63.22 123.88,65.16 122.32,66.01 C120.76,66.85 118.82,66.28 117.97,64.72 C117.79,64.38 99.09,30.86 64.31,30.86 C29.52,30.86 10.2,65.2 10.01,65.55 C9.43,66.61 8.34,67.21 7.21,67.21 Z" fill="#616161"/>
</svg>
